icons/sonography_fill.svg

<svg width="48" height="48" viewBox="0 0 48 48" fill="none" xmlns="http://www.w3.org/2000/svg">
<path fill-rule="evenodd" clip-rule="evenodd" d="M9 6C7.34315 6 6 7.34315 6 9V39C6 40.6569 7.34315 42 9 42H39C40.6569 42 42 40.6569 42 39V9C42 7.34315 40.6569 6 39 6H9ZM11 11H13C13.5523 11 14 10.5523 14 10C14 9.44771 13.5523 9 13 9H10.5C9.67157 9 9 9.67157 9 10.5V13C9 13.5523 9.44772 14 10 14C10.5523 14 11 13.5523 11 13V11ZM37 13V11H35C34.4477 11 34 10.5523 34 10C34 9.44771 34.4477 9 35 9H37.5C38.3284 9 39 9.67157 39 10.5V13C39 13.5523 38.5523 14 38 14C37.4477 14 37 13.5523 37 13ZM11.5189 30.998C10.4407 30.6737 9.89853 29.4921 10.3022 28.441L15.7888 14.1541C16.1603 13.1866 17.208 12.6712 18.2212 12.8888C20.0856 13.2891 22.0186 13.5 24 13.5C25.9814 13.5 27.9145 13.2891 29.7788 12.8888C30.7921 12.6712 31.8398 13.1866 32.2113 14.154L37.6979 28.441C38.1015 29.4921 37.5594 30.6737 36.4811 30.998C32.5181 32.1898 28.3304 32.8319 24 32.8319C19.6695 32.8319 15.482 32.1898 11.5189 30.998ZM27.2697 18.4282C28.4092 17.9328 29.7132 17.793 30.7837 18.3095C32.0922 18.9408 32.9863 20.2507 32.9863 21.7593C32.9863 23.879 31.2183 25.6089 29.0227 25.6089C28.8556 25.6089 28.691 25.5989 28.5296 25.5795L28.3854 25.5621L27.0017 27.4262C26.1624 28.5568 25.1723 29.7703 23.3721 30.0049L23.3686 30.0054C21.2052 30.3181 19.193 28.9849 18.1753 26.997C18.0426 26.7378 17.9137 26.4878 17.7929 26.2559L17.6844 26.0475L17.4697 26.143C17.2924 26.2218 17.1027 26.307 16.915 26.3912C16.428 26.61 15.9627 26.8188 15.7451 26.9034C14.9074 27.2291 13.9633 26.8299 13.6329 26.0257C13.3041 25.2251 13.7018 24.31 14.5363 23.9855C14.6796 23.9298 14.9763 23.7964 15.3509 23.6279L15.3645 23.6217C15.6246 23.5047 15.9257 23.3693 16.2486 23.2267C16.6142 23.0651 16.9921 22.9019 17.2983 22.7817C17.447 22.7233 17.6115 22.6621 17.7631 22.6162C17.8348 22.5945 17.9461 22.563 18.0727 22.5412C18.1355 22.5304 18.2389 22.5154 18.3646 22.5132C18.4622 22.5115 18.7269 22.5124 19.0311 22.6329C19.2838 22.7329 19.4482 22.8707 19.5051 22.9198C19.5807 22.985 19.636 23.0447 19.6678 23.0805C19.7318 23.1526 19.78 23.219 19.8066 23.2566C19.8636 23.3372 19.9168 23.423 19.9591 23.4935C20.0478 23.6414 20.1541 23.8319 20.2667 24.0396C20.4008 24.2867 20.8048 25.0936 21.0023 25.4895C21.133 25.7513 21.4851 25.8011 21.6834 25.5864C21.784 25.4774 21.8193 25.3233 21.7762 25.1814L21.1778 23.2124C21.0183 22.6808 20.8575 22.1462 20.7254 21.7182L20.7247 21.7159L20.4936 20.9915L20.4894 20.9816C20.1565 20.1825 20.5496 19.2656 21.3825 18.9372C22.2143 18.6091 23.1551 18.9983 23.494 19.7929L24.3959 22.8558C24.4526 23.0483 24.6416 23.1692 24.8394 23.1416C25.0783 23.1083 25.221 22.8758 25.1668 22.6549C25.0964 22.3677 25.059 22.0679 25.059 21.7593C25.059 20.9448 25.2399 20.2796 25.5973 19.7389C25.9549 19.1981 26.5024 18.7618 27.2697 18.4282ZM37 35V37H35C34.4477 37 34 37.4477 34 38C34 38.5523 34.4477 39 35 39H37.5C38.3284 39 39 38.3284 39 37.5V35C39 34.4477 38.5523 34 38 34C37.4477 34 37 34.4477 37 35ZM11 37H13C13.5523 37 14 37.4477 14 38C14 38.5523 13.5523 39 13 39H10.5C9.67157 39 9 38.3284 9 37.5V35C9 34.4477 9.44772 34 10 34C10.5523 34 11 34.4477 11 35V37Z" fill="black"/>
</svg>

<svg
  xmlns="http://www.w3.org/2000/svg"
  width="24"
  height="24"
  viewBox="0 0 24 24"
  fill="none"
  stroke="currentColor"
  stroke-width="2"
  stroke-linecap="round"
  stroke-linejoin="round"
>
  <path
    fill-rule="evenodd"
    d="M9 6a3 3 0 0 0-3 3v30a3 3 0 0 0 3 3h30a3 3 0 0 0 3-3V9a3 3 0 0 0-3-3zm2 5h2a1 1 0 1 0 0-2h-2.5A1.5 1.5 0 0 0 9 10.5V13a1 1 0 1 0 2 0zm26 2v-2h-2a1 1 0 1 1 0-2h2.5a1.5 1.5 0 0 1 1.5 1.5V13a1 1 0 1 1-2 0M11.519 30.998c-1.078-.324-1.62-1.506-1.217-2.557l5.487-14.287c.371-.967 1.419-1.483 2.432-1.265 1.865.4 3.798.611 5.779.611s3.915-.21 5.779-.611c1.013-.218 2.06.298 2.432 1.265l5.487 14.287c.404 1.051-.139 2.233-1.217 2.557A43.3 43.3 0 0 1 24 32.832c-4.33 0-8.518-.642-12.481-1.834m15.75-12.57c1.14-.495 2.444-.635 3.515-.119 1.308.632 2.202 1.942 2.202 3.45 0 2.12-1.768 3.85-3.963 3.85q-.251 0-.493-.03l-.145-.017-1.383 1.864c-.84 1.13-1.83 2.344-3.63 2.579h-.003c-2.164.313-4.176-1.02-5.194-3.008-.132-.26-.261-.51-.382-.741l-.109-.209-.214.096-.555.248c-.487.219-.952.428-1.17.512-.838.326-1.782-.073-2.112-.877-.329-.8.069-1.716.903-2.04.144-.056.44-.19.815-.358l.013-.006c.26-.117.562-.253.885-.395.365-.162.743-.325 1.05-.445.148-.059.313-.12.464-.166.072-.021.183-.053.31-.075.063-.01.166-.026.292-.028.097-.002.362 0 .666.12a1.66 1.66 0 0 1 .637.448c.064.072.112.138.139.176.057.08.11.166.152.236.089.148.195.339.308.547.134.247.538 1.054.735 1.45a.418.418 0 0 0 .774-.309l-.598-1.969c-.16-.531-.32-1.066-.453-1.494v-.002l-.231-.725-.005-.01c-.332-.799.06-1.715.893-2.044.832-.328 1.773.061 2.112.856l.902 3.063a.404.404 0 0 0 .443.286.395.395 0 0 0 .328-.487 3.8 3.8 0 0 1-.108-.896c0-.814.18-1.48.538-2.02s.905-.977 1.673-1.31M37 35v2h-2a1 1 0 1 0 0 2h2.5a1.5 1.5 0 0 0 1.5-1.5V35a1 1 0 1 0-2 0m-26 2h2a1 1 0 1 1 0 2h-2.5A1.5 1.5 0 0 1 9 37.5V35a1 1 0 1 1 2 0z"
    clip-rule="evenodd"
  />
</svg>
